images/icons/v2/safety-number-outline-24.svg

<svg height="24" viewBox="0 0 24 24" width="24" xmlns="http://www.w3.org/2000/svg"><path d="m21.793 7.888a19.35 19.35 0 0 1 -9.793 15.112c-4.4-2.6-10-7.5-10-18.5 7 0 10-3.5 10-3.5s2.156 2.5 7.05 3.268l-1.284 1.285a14.7 14.7 0 0 1 -5.766-2.553 15.653 15.653 0 0 1 -8.466 2.946c.431 8.846 4.8 12.96 8.458 15.29a17.39 17.39 0 0 0 7.991-11.536zm.737-2.858-1.06-1.06-9.47 9.469-3.47-3.469-1.06 1.06 4.53 4.531z"/></svg>

<svg xmlns="http://www.w3.org/2000/svg" width="24" height="24" viewBox="0 0 24 24"><title>safety-number-outline-24</title><path d="M21.793,7.888A19.35,19.35,0,0,1,12,23C7.6,20.4,2,15.5,2,4.5,9,4.5,12,1,12,1s2.156,2.5,7.05,3.268L17.766,5.553A14.7,14.7,0,0,1,12,3,15.653,15.653,0,0,1,3.534,5.946c.431,8.846,4.8,12.96,8.458,15.29A17.39,17.39,0,0,0,19.983,9.7ZM22.53,5.03,21.47,3.97,12,13.439,8.53,9.97,7.47,11.03,12,15.561Z"/></svg>
